app/public/icons/menu.svg

<svg width="16" height="15" viewBox="0 0 16 15" fill="none" xmlns="http://www.w3.org/2000/svg">
<path d="M0.6875 2.89062C0.371094 2.89062 0.125 2.64453 0.125 2.32812V0.921875C0.125 0.640625 0.371094 0.359375 0.6875 0.359375H15.3125C15.5938 0.359375 15.875 0.640625 15.875 0.921875V2.32812C15.875 2.64453 15.5938 2.89062 15.3125 2.89062H0.6875ZM0.6875 8.51562C0.371094 8.51562 0.125 8.26953 0.125 7.95312V6.54688C0.125 6.26562 0.371094 5.98438 0.6875 5.98438H15.3125C15.5938 5.98438 15.875 6.26562 15.875 6.54688V7.95312C15.875 8.26953 15.5938 8.51562 15.3125 8.51562H0.6875ZM0.6875 14.1406C0.371094 14.1406 0.125 13.8945 0.125 13.5781V12.1719C0.125 11.8906 0.371094 11.6094 0.6875 11.6094H15.3125C15.5938 11.6094 15.875 11.8906 15.875 12.1719V13.5781C15.875 13.8945 15.5938 14.1406 15.3125 14.1406H0.6875Z" fill="#1351B4"/>
</svg>

<svg xmlns="http://www.w3.org/2000/svg" width="16" height="15" fill="none"><path fill="#1351B4" d="M.688 2.89a.555.555 0 0 1-.563-.562V.922C.125.64.371.359.688.359h14.625c.28 0 .562.282.562.563v1.406a.58.58 0 0 1-.562.563zm0 5.626a.555.555 0 0 1-.563-.563V6.547c0-.281.246-.563.563-.563h14.625c.28 0 .562.282.562.563v1.406a.58.58 0 0 1-.562.563zm0 5.625a.555.555 0 0 1-.563-.563v-1.406c0-.281.246-.563.563-.563h14.625c.28 0 .562.282.562.563v1.406a.58.58 0 0 1-.562.563z"/></svg>
